X:178
T:Paul's Departure
B:Terry "Cuz" Teahan "Sliabh Luachra on Parade" 1980
Z:Patrick Cavanagh
M:4/4
L:1/8
R:Reel
K:D
B/c/B AG EAA2 | G2BG dGBG | B/c/B AG EAA2 | gedB BAA2 :| 
| a2ag eaaf | geed efge | a2ag eaaf | gedB BAA2 | 
a2ag eaaf | geed efg2 | bgag egfa | gedB BAA2 || 

